X:42
T: AUF EINEM FUSSE ZWEIMAL DREH
N: E1039
O: Europa, Mitteleuropa, Deutschland
R: Tanz - Lied, Schleifer
M: 3/8
L: 1/16
K: G
D2 | G3ABc | A2A3
G | GFEDEF | G4
D2 | G3ABc | A2A3
G | GFEDEF | G4
B2 | A3GFG | A4
B2 | A3GFG | A4
G2 | G3Bdf | g2e3
e | dedcBA | G4

